vendor/shopware/storefront/Resources/app/storefront/dist/assets/icon/default/circle-download.svg

<svg xmlns="http://www.w3.org/2000/svg" width="24" height="24" viewBox="0 0 24 24">
  <path fill="#758CA3" fill-rule="evenodd" d="M13,14.5857864 L14.2928932,13.2928932 C14.6834175,12.9023689 15.3165825,12.9023689 15.7071068,13.2928932 C16.0976311,13.6834175 16.0976311,14.3165825 15.7071068,14.7071068 L12.7071068,17.7071068 C12.3165825,18.0976311 11.6834175,18.0976311 11.2928932,17.7071068 L8.29289322,14.7071068 C7.90236893,14.3165825 7.90236893,13.6834175 8.29289322,13.2928932 C8.68341751,12.9023689 9.31658249,12.9023689 9.70710678,13.2928932 L11,14.5857864 L11,1 C11,0.44771525 11.4477153,0 12,0 C12.5522847,0 13,0.44771525 13,1 L13,14.5857864 Z M7.49927404,7.13439413 C7.97733496,6.85785082 8.58906256,7.02121312 8.86560587,7.49927404 C9.14214918,7.97733496 8.97878688,8.58906256 8.50072596,8.86560587 C6.35109585,10.1090997 5,12.4011852 5,14.9297424 C5,18.7957357 8.13400675,21.9297424 12,21.9297424 C15.8659932,21.9297424 19,18.7957357 19,14.9297424 C19,12.4011852 17.6489042,10.1090997 15.499274,8.86560587 C15.0212131,8.58906256 14.8578508,7.97733496 15.1343941,7.49927404 C15.4109374,7.02121312 16.022665,6.85785082 16.500726,7.13439413 C19.2622074,8.73182487 21,11.6799275 21,14.9297424 C21,19.9003052 16.9705627,23.9297424 12,23.9297424 C7.02943725,23.9297424 3,19.9003052 3,14.9297424 C3,11.6799275 4.73779265,8.73182487 7.49927404,7.13439413 Z"/>
</svg>

<svg xmlns="http://www.w3.org/2000/svg" width="24" height="24" viewBox="0 0 24 24"><path fill="#758CA3" fill-rule="evenodd" d="m13 14.5858 1.2929-1.293c.3905-.3904 1.0237-.3904 1.4142 0 .3905.3906.3905 1.0238 0 1.4143l-3 3c-.3905.3905-1.0237.3905-1.4142 0l-3-3c-.3905-.3905-.3905-1.0237 0-1.4142.3905-.3905 1.0237-.3905 1.4142 0L11 14.5858V1c0-.5523.4477-1 1-1s1 .4477 1 1v13.5858zM7.4993 7.1344c.478-.2765 1.0898-.1132 1.3663.3649.2765.478.1132 1.0898-.3649 1.3663C6.3511 10.1091 5 12.4012 5 14.9297c0 3.866 3.134 7 7 7s7-3.134 7-7c0-2.5285-1.3511-4.8206-3.5007-6.064-.478-.2766-.6414-.8884-.365-1.3664.2766-.478.8884-.6414 1.3664-.365C19.2622 8.7319 21 11.68 21 14.9298c0 4.9706-4.0294 9-9 9s-9-4.0294-9-9c0-3.2498 1.7378-6.198 4.4993-7.7954z"/></svg>
